X:1
T:Silent Worship, 87.87.87
T:Silent Worship, 87.87.87
T:Scott Werdebaugh, 2009
T:St. James Lit.; Tr. by G. Moultrie (1829-1885)
T:© 2009 Scott Werdebaugh. Reproduce or publish freely for Christian worship or devotions. Courtesy of the Cyber Hymnal™
T:© 2009 Scott Werdebaugh. Reproduce or publish freely for Christian worship or devotions. Courtesy of the Cyber Hymnal™
T:© 2009 Scott Werdebaugh. Reproduce or publish freely for Christian worship or devotions. Courtesy of the Cyber Hymnal™
C:Scott Werdebaugh, 2009
Z:© 2009 Scott Werdebaugh. Reproduce or publish freely for Christian worship or devotions.
Z:Courtesy of the Cyber Hymnal™
%%score ( 1 2 ) ( 3 4 ) ( 5 6 ) ( 7 8 )
L:1/8
Q:1/4=104
M:4/4
K:C
V:1 treble 
V:2 treble 
V:3 bass 
V:4 bass 
V:5 treble 
V:6 treble 
V:7 bass 
V:8 bass 
V:1
"^In flowing style" [Ec]2 [EG]2 [FA]2 [EG]2 | [DG]2 [DF]2 [CF]2 [CE]2 | [CF]2 [EG]2 [FA]2 [EG]2 | %3
w: 1.~Let all mor- tal|flesh keep si- lence,|And with fear and|
w: 2.~King of kings, yet|born of Mar- y,|As of old on|
w: 3.~Rank on rank the|host of heav- en|Spreads its van- guard|
w: 4.~At His feet the|six- winged ser- aph,|Cher- u- bim with|
 [DG]2 [DF]2 [CE]4 | [Ec]2 [EG]2 [FA]2 [EG]2 | [DG]2 [DF]2 [CF]2 [CE]2 | [CF]2 [EG]2 [FA]2 [Ec]2 | %7
w: tremb- ling stand;|Pon- der no- thing|earth- ly mind- ed,|For with bless- ing|
w: earth He stood,|Lord of lords, in|hu- man ves- ture,|In the Bod- y|
w: on the way,|As the Light of|light de- scend- eth|From the realms of|
w: sleep- less eye,|Veil their fac- es|to the pres- ence,|As with cease- less|
 B2 [^FA]2 G4 | [Ec]2 [EB]2 [=FA]2 [EG]2 | [FA]2 [EG]2 ([EG]>[DF]) [CE]2 | C2 [B,D]2 [CE]2 [CF]2 | %11
w: in His hand,|Christ our God to|earth de- scend- * eth,|Our full hom- age|
w: and the Blood|He will give to|all the faith- * ful|His own self for|
w: end- less day,|That the powers of|hell may van- * ish|As the dark- ness|
w: voice they cry:|“Al- le- lu- ia,|Al- le- lu- * ia|Al- le- lu- ia,|
 ([EG]>[FA]) [FB]2 !fermata![Ec]4"^Play 4 times" :| (c4 A4) | [EG]8 |] %14
w: to * de- mand.|||
w: heaven- * ly food.|||
w: clears * a- way.|||
w: Lord * Most High!”|A- *|men.|
V:2
 x8 | x8 | x8 | x8 | x8 | x8 | x8 | (DE) x G4 x | x8 | x8 | C2 x6 | x8 :| F8 | x8 |] %14
V:3
 [C,G,]2 [C,C]2 [F,C]2 [C,C]2 | [G,B,]2 [G,B,]2 [F,A,]2 [C,G,]2 | [F,A,]2 [C,C]2 [F,C]2 [C,C]2 | %3
 [G,B,]2 [G,B,]2 [C,G,]4 | [C,G,]2 [C,C]2 [F,C]2 [C,C]2 | [G,B,]2 [G,B,]2 [F,A,]2 [C,G,]2 | %6
 [F,A,]2 [C,C]2 [F,C]2 [C,G,]2 | [G,,G,]2 [D,A,]2 [G,B,]4 | [C,G,]2 [E,G,]2 [F,C]2 [C,C]2 | %9
 [F,C]2 [C,C]2 B,2 [C,G,]2 | [C,E,]2 [G,,G,]2 [C,G,]2 [F,A,]2 | %11
 (G,>A,)"^Play 4 times" [G,D]2 !fermata![C,G,]4 :| (A,4 C4) | [C,C]8 |] %14
V:4
 x8 | x8 | x8 | x8 | x8 | x8 | x8 | x8 | x8 | x4 (E,>G,) x2 | x8 | C,2 x6 :| F,8 | x8 |] %14
V:5
 [Ec]2 [EG]2 [FA]2 [EG]2 | [DG]2 [DF]2 [CF]2 [CE]2 | [CF]2 [EG]2 [FA]2 [EG]2 | [DG]2 [DF]2 [CE]4 | %4
 [Ec]2 [EG]2 [FA]2 [EG]2 | [DG]2 [DF]2 [CF]2 [CE]2 | [CF]2 [EG]2 [FA]2 [Ec]2 | B2 [^FA]2 G4 | %8
 [Ec]2 [EB]2 [=FA]2 [EG]2 | [FA]2 [EG]2 ([EG]>[DF]) [CE]2 | C2 [B,D]2 [CE]2 [CF]2 | %11
 ([EG]>[FA]) [FB]2 [Ec]4"^Play 4 times" :| (c4 A4) | [EG]8 |] %14
V:6
 x8 | x8 | x8 | x8 | x8 | x8 | x8 | (DE) x G4 x | x8 | x8 | C2 x6 | x8 :| F8 | x8 |] %14
V:7
 [C,G,]2 [C,C]2 [F,C]2 [C,C]2 | [G,B,]2 [G,B,]2 [F,A,]2 [C,G,]2 | [F,A,]2 [C,C]2 [F,C]2 [C,C]2 | %3
 [G,B,]2 [G,B,]2 [C,G,]4 | [C,G,]2 [C,C]2 [F,C]2 [C,C]2 | [G,B,]2 [G,B,]2 [F,A,]2 [C,G,]2 | %6
 [F,A,]2 [C,C]2 [F,C]2 [C,G,]2 | [G,,G,]2 [D,A,]2 [G,B,]4 | [C,G,]2 [E,G,]2 [F,C]2 [C,C]2 | %9
 [F,C]2 [C,C]2 B,2 [C,G,]2 | [C,E,]2 [G,,G,]2 [C,G,]2 [F,A,]2 | %11
 (G,>A,)"^Play 4 times" [G,D]2 [C,G,]4 :| (A,4 C4) | [C,C]8 |] %14
V:8
 x8 | x8 | x8 | x8 | x8 | x8 | x8 | x8 | x8 | x4 (E,>G,) x2 | x8 | C,2 x6 :| F,8 | x8 |] %14

